;FLAVOR:Marlin
;TIME:11915
;Filament used: 12.9075m
;Layer height: 0.3
;MINX:60.1
;MINY:77.85
;MINZ:0.3
;MAXX:149.9
;MAXY:173.493
;MAXZ:24.075
;Generated with Cura_SteamEngine main
M82 ;absolute extrusion mode
;Profil Homepage: https://github.com/NilsRo/Cura_Anycubic_MegaS_Profile

;Slicer Information - (Support for OctoPrint Slicer Estimator)
;Slicer info:material_guid;0ff92885-617b-4144-a03c-9989872454bc
;Slicer info:material_id;generic_pla_175
;Slicer info:material_brand;Generic
;Slicer info:material_name;PLA
;Slicer info:material_bed_temperature;60
;Slicer info:material_bed_temperature_layer_0;60
;Slicer info:material_print_temperature;200
;Slicer info:material_print_temperature_layer_0;205
;Slicer info:material_flow;100
;Slicer info:layer_height;0.3
;Slicer info:wall_thickness;1.2000000000000002
;Slicer info:speed_print;50.0
;Slicer info:speed_topbottom;25.0
;Slicer info:travel_speed;100.0
;Slicer info:support;0
;Slicer info:retraction_speed;30
;Slicer info:retraction_amount;6
;Slicer info:layer_height;0.3
;Slicer info:infill_pattern;grid
;Slicer info:infill_sparse_density;20
;Slicer info:cool_fan_enabled;True
;Slicer info:cool_fan_speed;70
;Slicer info:sliced_at;Mon 21-11-2022 21:49:10
G21                                        ; metric values 
G90                                        ; absolute positioning 
M82                                        ; set extruder to absolute mode 
M107                                       ; start with the fan off 
M140 S60   ; Start heating the bed 
G4 S60                                     ; wait 1 minute 
M104 S205 ; start heating the hot end 
M190 S60   ; wait for bed 
M109 S205 ; wait for hotend 
M300 S1000 P500                            ; BEEP heating done 
G28 X0 Y10 Z0                              ; move X/Y to min endstops 
M420 S1                                    ; Enable leveling 
M420 Z2.0                                  ; Set leveling fading height to 2 mm 
G0 Z0.15                                   ; lift nozzle a bit 
G92 E0                                     ; zero the extruded length 
G1 X50 E20 F500                            ; Extrude 20mm of filament in a 5cm line. 
G92 E0                                     ; zero the extruded length again 
G1 E-2 F500                                ; Retract a little 
G1 X120 F4000                              ; Quickly wipe away from the filament line`
G92 E0
G92 E0
G1 F1800 E-6
;LAYER_COUNT:80
;LAYER:0
M106 S76.5
M205 X10 Y10
G1 F480 Z0.375
G0 F6000 X63.122 Y79.484 Z0.375
G1 F480 Z0.375
G0 F6000 X60.1 Y85.65
M205 X8 Y8
;TYPE:SKIRT
G1 F480 Z0.3
G1 F1800 E0
G1 F1200 X60.14 Y84.861 E0.03941
G1 X60.259 Y84.081 E0.07878
G1 X60.457 Y83.316 E0.1182
G1 X60.731 Y82.576 E0.15757
G1 X61.079 Y81.867 E0.19697
G1 X61.497 Y81.196 E0.23641
G1 X61.98 Y80.572 E0.27578
G1 X62.523 Y79.999 E0.31517
G1 X63.122 Y79.484 E0.35458
G1 X63.77 Y79.033 E0.39397
G1 X64.461 Y78.649 E0.43341
G1 X65.186 Y78.337 E0.47278
G1 X65.939 Y78.1 E0.51217
G1 X66.713 Y77.941 E0.55159
G1 X67.595 Y77.85 E0.59582
G1 X142.1 Y77.85 E4.31289
G1 X142.889 Y77.89 E4.35231
G1 X143.669 Y78.009 E4.39167
G1 X144.434 Y78.207 E4.4311
G1 X145.174 Y78.481 E4.47046
G1 X145.883 Y78.829 E4.50987
G1 X146.554 Y79.247 E4.54931
G1 X147.178 Y79.73 E4.58868
G1 X147.751 Y80.273 E4.62806
G1 X148.266 Y80.872 E4.66747
G1 X148.717 Y81.52 E4.70686
G1 X149.101 Y82.211 E4.7463
G1 X149.413 Y82.936 E4.78568
G1 X149.65 Y83.689 E4.82506
G1 X149.809 Y84.463 E4.86448
G1 X149.9 Y85.345 E4.90872
G1 X149.9 Y123.85 E6.82974
G1 X149.86 Y124.639 E6.86916
G1 X149.741 Y125.419 E6.90852
G1 X149.543 Y126.184 E6.94794
G1 X149.269 Y126.924 E6.98731
G1 X148.921 Y127.633 E7.02672
G1 X148.503 Y128.304 E7.06616
G1 X147.827 Y129.177 E7.12124
G1 X148.059 Y130.306 E7.17874
G1 X148.15 Y131.188 E7.22298
G1 X148.15 Y165.693 E8.94444
G1 X148.11 Y166.482 E8.98386
G1 X147.991 Y167.262 E9.02322
G1 X147.793 Y168.027 E9.06264
G1 X147.519 Y168.767 E9.10201
G1 X147.171 Y169.476 E9.14142
G1 X146.753 Y170.147 E9.18086
G1 X146.27 Y170.771 E9.22022
G1 X145.727 Y171.344 E9.25961
G1 X145.128 Y171.859 E9.29902
G1 X144.48 Y172.31 E9.33841
G1 X143.789 Y172.694 E9.37785
G1 X143.064 Y173.006 E9.41723
G1 X142.311 Y173.243 E9.45661
G1 X141.537 Y173.402 E9.49603
G1 X140.655 Y173.493 E9.54027
G1 X70.15 Y173.493 E13.05778
G1 X69.361 Y173.453 E13.09719
G1 X68.581 Y173.334 E13.13655
G1 X67.816 Y173.136 E13.17598
G1 X67.076 Y172.862 E13.21535
G1 X66.367 Y172.514 E13.25475
G1 X65.696 Y172.096 E13.29419
G1 X65.072 Y171.613 E13.33356
G1 X64.499 Y171.07 E13.37294
G1 X63.984 Y170.471 E13.41235
G1 X63.533 Y169.823 E13.45174
G1 X63.149 Y169.132 E13.49118
G1 X62.837 Y168.407 E13.53056
G1 X62.6 Y167.654 E13.56994
G1 X62.441 Y166.88 E13.60936
G1 X62.35 Y165.998 E13.6536
G1 X62.35 Y131.493 E15.37506
G1 X62.39 Y130.704 E15.41448
G1 X62.569 Y129.53 E15.47372
G1 X62.249 Y129.227 E15.49571
G1 X61.734 Y128.628 E15.53512
G1 X61.283 Y127.98 E15.57451
G1 X60.899 Y127.289 E15.61395
G1 X60.587 Y126.564 E15.65333
G1 X60.35 Y125.811 E15.69271
G1 X60.191 Y125.037 E15.73213
G1 X60.1 Y124.155 E15.77637
G1 X60.1 Y85.65 E17.69739
M205 X10 Y10
G0 F6000 X60.5 Y85.65
M205 X8 Y8
G1 F1200 X60.54 Y84.882 E17.73576
G1 X60.659 Y84.122 E17.77414
G1 X60.857 Y83.379 E17.8125
G1 X61.131 Y82.66 E17.85089
G1 X61.478 Y81.974 E17.88924
G1 X61.894 Y81.327 E17.92762
G1 X62.375 Y80.727 E17.96598
G1 X62.916 Y80.18 E18.00436
G1 X63.511 Y79.692 E18.04276
G1 X64.153 Y79.269 E18.08111
G1 X64.836 Y78.914 E18.11952
G1 X65.551 Y78.633 E18.15784
G1 X66.293 Y78.427 E18.19626
G1 X67.051 Y78.299 E18.23461
G1 X67.9 Y78.25 E18.27704
G1 X142.1 Y78.25 E21.9789
G1 X142.868 Y78.29 E22.01726
G1 X143.628 Y78.409 E22.05564
G1 X144.371 Y78.607 E22.094
G1 X145.09 Y78.881 E22.13239
G1 X145.776 Y79.228 E22.17074
G1 X146.423 Y79.644 E22.20912
G1 X147.023 Y80.125 E22.24749
G1 X147.57 Y80.666 E22.28587
G1 X148.058 Y81.261 E22.32426
G1 X148.481 Y81.903 E22.36262
G1 X148.836 Y82.586 E22.40102
G1 X149.117 Y83.301 E22.43935
G1 X149.323 Y84.043 E22.47777
G1 X149.451 Y84.801 E22.51612
G1 X149.5 Y85.65 E22.55855
G1 X149.5 Y123.85 E24.46435
G1 X149.46 Y124.618 E24.50272
G1 X149.341 Y125.378 E24.5411
G1 X149.143 Y126.121 E24.57946
G1 X148.869 Y126.84 E24.61785
G1 X148.522 Y127.526 E24.6562
G1 X148.106 Y128.173 E24.69458
G1 X147.625 Y128.773 E24.73294
G1 X147.343 Y129.058 E24.75294
G1 X147.573 Y129.886 E24.79582
G1 X147.701 Y130.644 E24.83417
G1 X147.75 Y131.493 E24.8766
G1 X147.75 Y165.693 E26.58284
G1 X147.71 Y166.461 E26.62121
G1 X147.591 Y167.221 E26.65959
G1 X147.393 Y167.964 E26.69795
G1 X147.119 Y168.683 E26.73634
G1 X146.772 Y169.369 E26.77469
G1 X146.356 Y170.016 E26.81307
G1 X145.875 Y170.616 E26.85143
G1 X145.334 Y171.163 E26.88982
G1 X144.739 Y171.651 E26.92821
G1 X144.097 Y172.074 E26.96656
G1 X143.414 Y172.429 E27.00497
G1 X142.699 Y172.71 E27.04329
G1 X141.957 Y172.916 E27.08171
G1 X141.199 Y173.044 E27.12007
G1 X140.35 Y173.093 E27.16249
G1 X70.15 Y173.093 E30.66479
G1 X69.382 Y173.053 E30.70315
G1 X68.622 Y172.934 E30.74153
G1 X67.879 Y172.736 E30.77989
G1 X67.16 Y172.462 E30.81828
G1 X66.474 Y172.115 E30.85663
G1 X65.827 Y171.699 E30.89501
G1 X65.227 Y171.218 E30.93338
G1 X64.68 Y170.677 E30.97176
G1 X64.192 Y170.082 E31.01015
G1 X63.769 Y169.44 E31.04851
G1 X63.414 Y168.757 E31.08691
G1 X63.133 Y168.042 E31.12524
G1 X62.927 Y167.3 E31.16366
G1 X62.799 Y166.542 E31.20201
G1 X62.75 Y165.693 E31.24444
G1 X62.75 Y131.493 E32.95068
G1 X62.79 Y130.725 E32.98905
G1 X62.909 Y129.965 E33.02743
G1 X63.048 Y129.445 E33.05428
G1 X62.43 Y128.834 E33.09764
G1 X61.942 Y128.239 E33.13603
G1 X61.519 Y127.597 E33.17439
G1 X61.164 Y126.914 E33.21279
G1 X60.883 Y126.199 E33.25112
G1 X60.677 Y125.457 E33.28954
G1 X60.549 Y124.699 E33.32789
G1 X60.5 Y123.85 E33.37031
G1 X60.5 Y85.65 E35.27612
M205 X10 Y10
G0 F6000 X60.9 Y85.65
M205 X8 Y8
G1 F1200 X60.94 Y84.903 E35.31344
G1 X61.059 Y84.165 E35.35074
G1 X61.257 Y83.443 E35.38809
G1 X61.53 Y82.747 E35.42539
G1 X61.877 Y82.084 E35.46272
G1 X62.292 Y81.461 E35.50007
G1 X62.771 Y80.887 E35.53736
G1 X63.308 Y80.366 E35.57469
G1 X63.898 Y79.907 E35.61199
G1 X64.534 Y79.512 E35.64934
G1 X65.208 Y79.188 E35.68665
G1 X65.913 Y78.938 E35.72397
G1 X66.641 Y78.764 E35.76131
G1 X67.383 Y78.669 E35.79863
G1 X67.9 Y78.65 E35.82444
G1 X142.1 Y78.65 E39.52629
G1 X142.847 Y78.69 E39.56361
G1 X143.585 Y78.809 E39.60091
G1 X144.307 Y79.007 E39.63826
G1 X145.003 Y79.28 E39.67556
G1 X145.666 Y79.627 E39.71289
G1 X146.289 Y80.042 E39.75024
G1 X146.863 Y80.521 E39.78754
G1 X147.384 Y81.058 E39.82487
G1 X147.843 Y81.648 E39.86216
G1 X148.238 Y82.284 E39.89951
G1 X148.562 Y82.958 E39.93682
G1 X148.812 Y83.663 E39.97414
G1 X148.986 Y84.391 E40.01148
G1 X149.081 Y85.133 E40.0488
G1 X149.1 Y85.65 E40.07461
G1 X149.1 Y123.85 E41.98042
G1 X149.06 Y124.597 E42.01774
G1 X148.941 Y125.335 E42.05504
G1 X148.743 Y126.057 E42.09239
G1 X148.47 Y126.753 E42.12969
G1 X148.123 Y127.416 E42.16702
G1 X147.708 Y128.039 E42.20437
G1 X147.229 Y128.613 E42.24166
G1 X146.869 Y128.962 E42.26668
G1 X147.062 Y129.506 E42.29548
G1 X147.236 Y130.234 E42.33282
G1 X147.331 Y130.976 E42.37014
G1 X147.35 Y131.493 E42.39595
G1 X147.35 Y165.693 E44.1022
G1 X147.31 Y166.44 E44.13952
G1 X147.191 Y167.178 E44.17681
G1 X146.993 Y167.9 E44.21416
G1 X146.72 Y168.596 E44.25146
G1 X146.373 Y169.259 E44.28879
G1 X145.958 Y169.882 E44.32614
G1 X145.479 Y170.456 E44.36344
G1 X144.942 Y170.977 E44.40077
G1 X144.352 Y171.436 E44.43806
G1 X143.716 Y171.831 E44.47541
G1 X143.042 Y172.155 E44.51272
G1 X142.337 Y172.405 E44.55004
G1 X141.609 Y172.579 E44.58738
G1 X140.867 Y172.674 E44.6247
G1 X140.35 Y172.693 E44.65052
G1 X70.15 Y172.693 E48.15281
G1 X69.403 Y172.653 E48.19013
G1 X68.665 Y172.534 E48.22742
G1 X67.943 Y172.336 E48.26477
G1 X67.247 Y172.063 E48.30207
G1 X66.584 Y171.716 E48.33941
G1 X65.961 Y171.301 E48.37675
G1 X65.387 Y170.822 E48.41405
G1 X64.866 Y170.285 E48.45138
G1 X64.407 Y169.695 E48.48867
G1 X64.012 Y169.059 E48.52603
G1 X63.688 Y168.385 E48.56333
G1 X63.438 Y167.68 E48.60065
G1 X63.264 Y166.952 E48.638
G1 X63.169 Y166.21 E48.67532
G1 X63.15 Y165.693 E48.70113
G1 X63.15 Y131.493 E50.40737
G1 X63.19 Y130.746 E50.44469
G1 X63.309 Y130.008 E50.48199
G1 X63.507 Y129.287 E50.51929
G1 X63.137 Y128.979 E50.54331
G1 X62.616 Y128.442 E50.58064
G1 X62.157 Y127.852 E50.61793
G1 X61.762 Y127.216 E50.65528
G1 X61.438 Y126.542 E50.69259
G1 X61.188 Y125.837 E50.72991
G1 X61.014 Y125.109 E50.76725
G1 X60.919 Y124.367 E50.80457
G1 X60.9 Y123.85 E50.83039
G1 X60.9 Y85.65 E52.73619
M205 X10 Y10
G0 F6000 X61.3 Y85.65
M205 X8 Y8
G1 F1200 X61.34 Y84.925 E52.77242
G1 X61.459 Y84.208 E52.80868
G1 X61.657 Y83.509 E52.84492
G1 X61.93 Y82.836 E52.88116
G1 X62.275 Y82.197 E52.91739
G1 X62.689 Y81.6 E52.95363
G1 X63.165 Y81.052 E52.98984
G1 X63.699 Y80.559 E53.0261
G1 X64.284 Y80.129 E53.06233
G1 X64.913 Y79.765 E53.09858
G1 X65.578 Y79.472 E53.13484
G1 X66.271 Y79.254 E53.17108
G1 X66.983 Y79.114 E53.20728
G1 X67.9 Y79.05 E53.25314
G1 X142.1 Y79.05 E56.955
G1 X142.825 Y79.09 E56.99122
G1 X143.542 Y79.209 E57.02748
G1 X144.241 Y79.407 E57.06373
G1 X144.914 Y79.68 E57.09996
G1 X145.553 Y80.025 E57.13619
G1 X146.15 Y80.439 E57.17244
G1 X146.698 Y80.915 E57.20865
G1 X147.191 Y81.449 E57.24491
G1 X147.621 Y82.034 E57.28113
G1 X147.985 Y82.663 E57.31739
G1 X148.278 Y83.328 E57.35364
G1 X148.496 Y84.021 E57.38989
G1 X148.636 Y84.733 E57.42609
G1 X148.7 Y85.65 E57.47195
G1 X148.7 Y123.85 E59.37775
G1 X148.66 Y124.575 E59.41398
G1 X148.541 Y125.292 E59.45024
G1 X148.343 Y125.991 E59.48649
G1 X148.07 Y126.664 E59.52272
G1 X147.725 Y127.303 E59.55895
G1 X147.311 Y127.9 E59.59519
G1 X146.835 Y128.448 E59.63141
G1 X146.421 Y128.83 E59.65951
G1 X146.746 Y129.864 E59.71359
G1 X146.886 Y130.576 E59.74979
G1 X146.95 Y131.493 E59.79565
G1 X146.95 Y165.693 E61.50189
G1 X146.91 Y166.418 E61.53812
G1 X146.791 Y167.135 E61.57438
G1 X146.593 Y167.834 E61.61062
G1 X146.32 Y168.507 E61.64686
G1 X145.975 Y169.146 E61.68309
G1 X145.561 Y169.743 E61.71933
G1 X145.085 Y170.291 E61.75555
G1 X144.551 Y170.784 E61.79181
G1 X143.966 Y171.214 E61.82803
G1 X143.337 Y171.578 E61.86428
G1 X142.672 Y171.871 E61.90054
G1 X141.979 Y172.089 E61.93678
G1 X141.267 Y172.229 E61.97299
G1 X140.35 Y172.293 E62.01885
G1 X70.15 Y172.293 E65.52114
G1 X69.425 Y172.253 E65.55736
G1 X68.708 Y172.134 E65.59362
G1 X68.009 Y171.936 E65.62987
G1 X67.336 Y171.663 E65.6661
G1 X66.697 Y171.318 E65.70233
G1 X66.1 Y170.904 E65.73858
G1 X65.552 Y170.428 E65.77479
G1 X65.059 Y169.894 E65.81105
G1 X64.629 Y169.309 E65.84727
G1 X64.265 Y168.68 E65.88353
G1 X63.972 Y168.015 E65.91978
G1 X63.754 Y167.322 E65.95603
G1 X63.614 Y166.61 E65.99223
G1 X63.55 Y165.693 E66.03809
G1 X63.55 Y131.493 E67.74434
G1 X63.59 Y130.768 E67.78056
G1 X63.709 Y130.051 E67.81682
G1 X63.962 Y129.158 E67.86313
G1 X63.302 Y128.585 E67.90673
G1 X62.809 Y128.051 E67.94299
G1 X62.379 Y127.466 E67.97921
G1 X62.015 Y126.837 E68.01547
G1 X61.722 Y126.172 E68.05172
G1 X61.504 Y125.479 E68.08797
G1 X61.364 Y124.767 E68.12417
G1 X61.3 Y123.85 E68.17003
G1 X61.3 Y85.65 E70.07584
M205 X10 Y10
G0 F6000 X61.7 Y85.65
M205 X8 Y8
G1 F1200 X61.74 Y84.947 E70.11097
G1 X61.859 Y84.253 E70.1461
G1 X62.057 Y83.578 E70.18119
G1 X62.329 Y82.929 E70.2163
G1 X62.674 Y82.315 E70.25144
G1 X63.085 Y81.744 E70.28653
G1 X63.559 Y81.223 E70.32168
G1 X64.089 Y80.759 E70.35682
G1 X64.668 Y80.359 E70.39193
G1 X65.289 Y80.027 E70.42706
G1 X65.943 Y79.767 E70.46217
G1 X66.623 Y79.583 E70.49732
G1 X67.319 Y79.477 E70.53244
G1 X67.9 Y79.45 E70.56146
G1 X142.1 Y79.45 E74.26331
G1 X142.803 Y79.49 E74.29844
G1 X143.497 Y79.609 E74.33357
G1 X144.172 Y79.807 E74.36866
G1 X144.821 Y80.079 E74.40377
G1 X145.435 Y80.424 E74.43891
G1 X146.006 Y80.835 E74.47401
G1 X146.527 Y81.309 E74.50915
G1 X146.991 Y81.839 E74.54429
G1 X147.391 Y82.418 E74.5794
G1 X147.723 Y83.039 E74.61453
G1 X147.983 Y83.693 E74.64965
G1 X148.167 Y84.373 E74.68479
G1 X148.273 Y85.069 E74.71991
G1 X148.3 Y85.65 E74.74893
G1 X148.3 Y123.85 E76.65474
G1 X148.26 Y124.553 E76.68987
G1 X148.141 Y125.247 E76.725
G1 X147.943 Y125.922 E76.76009
G1 X147.671 Y126.571 E76.7952
G1 X147.326 Y127.185 E76.83034
G1 X146.915 Y127.756 E76.86544
G1 X146.441 Y128.277 E76.90058
G1 X145.915 Y128.736 E76.9354
G1 X146.233 Y129.536 E76.97835
G1 X146.417 Y130.216 E77.0135
G1 X146.523 Y130.912 E77.04862
G1 X146.55 Y131.493 E77.07764
G1 X146.55 Y165.693 E78.78389
G1 X146.51 Y166.396 E78.81902
G1 X146.391 Y167.09 E78.85415
G1 X146.193 Y167.765 E78.88924
G1 X145.921 Y168.414 E78.92435
G1 X145.576 Y169.028 E78.95948
G1 X145.165 Y169.599 E78.99458
G1 X144.691 Y170.12 E79.02972
G1 X144.161 Y170.584 E79.06487
G1 X143.582 Y170.984 E79.09998
G1 X142.961 Y171.316 E79.13511
G1 X142.307 Y171.576 E79.17022
G1 X141.627 Y171.76 E79.20537
G1 X140.931 Y171.866 E79.24049
G1 X140.35 Y171.893 E79.26951
G1 X70.15 Y171.893 E82.7718
G1 X69.447 Y171.853 E82.80693
G1 X68.753 Y171.734 E82.84206
G1 X68.078 Y171.536 E82.87715
G1 X67.429 Y171.264 E82.91226
G1 X66.815 Y170.919 E82.9474
G1 X66.244 Y170.508 E82.9825
G1 X65.723 Y170.034 E83.01764
G1 X65.259 Y169.504 E83.05278
G1 X64.859 Y168.925 E83.08789
G1 X64.527 Y168.304 E83.12302
G1 X64.267 Y167.65 E83.15813
G1 X64.083 Y166.97 E83.19328
G1 X63.977 Y166.274 E83.2284
G1 X63.95 Y165.693 E83.25742
G1 X63.95 Y131.493 E84.96367
G1 X63.99 Y130.79 E84.9988
G1 X64.109 Y130.096 E85.03392
G1 X64.307 Y129.421 E85.06902
G1 X64.478 Y129.013 E85.09109
G1 X63.994 Y128.665 E85.12083
G1 X63.473 Y128.191 E85.15597
G1 X63.009 Y127.661 E85.19111
G1 X62.609 Y127.082 E85.22622
G1 X62.277 Y126.461 E85.26135
G1 X62.017 Y125.807 E85.29647
G1 X61.833 Y125.127 E85.33161
G1 X61.727 Y124.431 E85.36674
G1 X61.7 Y123.85 E85.39575
G1 X61.7 Y85.65 E87.30156
M205 X10 Y10
G0 F6000 X62.1 Y85.65
M205 X8 Y8
G1 F1200 X62.14 Y84.97 E87.33554
G1 X62.259 Y84.3 E87.36949
G1 X62.456 Y83.648 E87.40347
G1 X62.728 Y83.024 E87.43743
G1 X63.072 Y82.436 E87.47142
G1 X63.482 Y81.892 E87.50541
G1 X63.953 Y81.401 E87.53935
G1 X64.478 Y80.967 E87.57333
G1 X65.05 Y80.598 E87.60729
G1 X65.662 Y80.299 E87.64128
G1 X66.304 Y80.074 E87.67522
